X:1
T:New Year
C:John Wobus
S:John Wobus composed 1/1/2002
M:2/4
R:reel
K:E DOR
|: e3f edBe | dBAd BAFE | DB, (3B,B,B, A,B, (3B,B,B, | DB,DE FBAF |
e3f edBe | dBAd BAFE | DB, (3B,B,B, A,B,DF | GEFD E4 :|
|: FB (3BBB dB (3BBB | dBAF G2GA | B3d BF (3FFF | BABc dcdf |
af (3fff ecAc | d2de dcBA | GE (3EEE FB (3BBB | AFAc B4 :|
W:Copyright 2002 John Wobus, PGTPPCATPL AORR
